X: 16
T: Ballydesmond, The
Z: chansherly212
S: https://thesession.org/tunes/239#setting53934
R: polka
M: 2/4
L: 1/8
K: Ador
|:AB|"Am"c2 "G"B2|"Am"A2"Em"G>A|"G"Bd ed|g2 ed|
"Am"ea ge|"G"dB GA/B/|"C"ce "Em"dB|"Am"A2:|
|:A2|"Am"ea ag/e/|"G"dg g2|"Am"ea ab|"Em"g2 ed|
"Am"ea ge|"G"dB GA/B/|"Am"ce "Em"dB|"Am"A2 :|

%-------------------- TUNE SEPARATOR --------------------%

